tipitek/img/manager-icon-1.svg

<svg width="60" height="60" viewBox="0 0 60 60" fill="none" xmlns="http://www.w3.org/2000/svg">
<rect width="60" height="59.997" rx="13.0472" fill="#30CBFF" fill-opacity="0.1"/>
<g clip-path="url(#clip0_437_1040)">
<path d="M17.829 48.2583C17.731 48.2583 17.632 48.2399 17.5376 48.2003C17.254 48.0833 17.0684 47.805 17.0684 47.4973V42.9323C17.0684 42.5117 17.4091 42.1717 17.829 42.1717C18.2492 42.1717 18.59 42.5117 18.59 42.9323V45.6609L21.8565 42.3946C21.927 42.3238 22.0108 42.2677 22.1031 42.2295C22.1954 42.1912 22.2944 42.1716 22.3943 42.1717H45.2204C46.0596 42.1717 46.7423 41.4891 46.7423 40.6499V19.3468C46.7423 18.5075 46.0596 17.8249 45.2204 17.8249H41.4161C40.9954 17.8249 40.6551 17.4842 40.6551 17.0643C40.6551 16.6441 40.9954 16.3033 41.4161 16.3033H45.2204C46.8989 16.3033 48.2639 17.6683 48.2639 19.3468V40.6499C48.2639 42.3283 46.8989 43.6933 45.2204 43.6933H22.7094L18.3671 48.0354C18.2243 48.178 18.0308 48.2581 17.829 48.2583ZM14.7858 43.6933C13.1073 43.6933 11.7422 42.3283 11.7422 40.6499V19.3468C11.7422 17.6683 13.1073 16.3033 14.7858 16.3033H18.59C19.0099 16.3033 19.351 16.6441 19.351 17.0643C19.351 17.4842 19.0099 17.8249 18.59 17.8249H14.7858C13.9465 17.8249 13.2638 18.5075 13.2638 19.3468V40.6499C13.2638 41.4891 13.9465 42.1717 14.7858 42.1717C15.2057 42.1717 15.5464 42.5117 15.5464 42.9323C15.5464 43.353 15.2057 43.6933 14.7858 43.6933Z" fill="#30CBFF"/>
<path d="M40.6577 30.7593H39.897C39.4763 30.7593 39.136 30.4183 39.136 29.9984C39.136 29.5785 39.4763 29.2375 39.897 29.2375H40.6577C41.497 29.2375 42.1796 28.5552 42.1796 27.7159V26.1944C42.1796 25.3551 41.497 24.6725 40.6577 24.6725H39.897C39.4763 24.6725 39.136 24.3318 39.136 23.9119V22.39C39.136 17.3558 35.0403 13.26 30.0056 13.26C24.9709 13.26 20.8752 17.3558 20.8752 22.39V23.9119C20.8752 24.3318 20.5344 24.6725 20.1142 24.6725C19.6943 24.6725 19.3535 24.3318 19.3535 23.9119V22.39C19.3535 16.5166 24.1316 11.7385 30.0056 11.7385C35.8796 11.7385 40.6577 16.5166 40.6577 22.39V23.1509C42.3362 23.1509 43.7012 24.5159 43.7012 26.1944V27.7159C43.7012 29.3943 42.3362 30.7593 40.6577 30.7593Z" fill="#30CBFF"/>
<path d="M20.1089 30.7593H19.3483C17.6698 30.7593 16.3047 29.3943 16.3047 27.7159V26.1943C16.3047 24.5159 17.6698 23.1509 19.3483 23.1509H20.1089C20.5291 23.1509 20.8699 23.4916 20.8699 23.9118V29.9984C20.8699 30.4183 20.5292 30.7593 20.1089 30.7593ZM19.3483 24.6725C18.509 24.6725 17.8263 25.3551 17.8263 26.1943V27.7159C17.8263 28.5551 18.509 29.2375 19.3483 29.2375V24.6725ZM30.0003 40.6499C28.7417 40.6499 27.7177 39.626 27.7177 38.3674C27.7177 37.1092 28.7417 36.0849 30.0003 36.0849C30.9926 36.0849 31.8386 36.7211 32.1528 37.6068H32.283C36.0591 37.6068 39.1308 34.5352 39.1308 30.7593V26.955C39.1308 26.5351 39.471 26.1943 39.8917 26.1943C40.3125 26.1943 40.6524 26.5351 40.6524 26.955V30.7593C40.6524 35.3736 36.8975 39.1284 32.283 39.1284H31.522C31.422 39.1284 31.3231 39.1088 31.2307 39.0706C31.1384 39.0324 31.0545 38.9763 30.9838 38.9056C30.9132 38.835 30.8572 38.7511 30.819 38.6587C30.7808 38.5664 30.7612 38.4674 30.7613 38.3674C30.7613 37.9475 30.4196 37.6068 30.0003 37.6068C29.5811 37.6068 29.2394 37.9475 29.2394 38.3674C29.2394 38.7876 29.5811 39.1284 30.0003 39.1284C30.4203 39.1284 30.7613 39.4686 30.7613 39.8893C30.7613 40.31 30.4203 40.6499 30.0003 40.6499ZM36.8482 23.1509C36.4275 23.1509 36.0872 22.8102 36.0872 22.39C36.0872 19.034 33.3566 16.3034 30.0003 16.3034C26.6441 16.3034 23.9135 19.0339 23.9135 22.39C23.9135 22.8101 23.5724 23.1509 23.1525 23.1509C22.7326 23.1509 22.3915 22.8102 22.3915 22.39C22.3915 18.1948 25.8049 14.7819 30.0003 14.7819C34.1958 14.7819 37.6091 18.1948 37.6091 22.39C37.6091 22.8101 37.2689 23.1509 36.8482 23.1509ZM26.1961 31.52H27.7177V33.0418H26.1961V31.52ZM29.2394 31.52H30.7613V33.0418H29.2394V31.52Z" fill="#30CBFF"/>
<path d="M32.2891 31.5202H33.8116V33.0421H32.2891V31.5202Z" fill="#30CBFF"/>
</g>
<defs>
<clipPath id="clip0_437_1040">
<rect width="36.5217" height="36.5199" fill="white" transform="translate(11.7383 11.7383)"/>
</clipPath>
</defs>
</svg>

<svg width="60" height="60" fill="none" xmlns="http://www.w3.org/2000/svg"><rect width="60" height="59.997" rx="13.047" fill="#30CBFF" fill-opacity=".1"/><g clip-path="url(#clip0_437_1040)" fill="#30CBFF"><path d="M17.829 48.258a.76.76 0 0 1-.76-.761v-4.565a.76.76 0 1 1 1.521 0v2.729l3.267-3.266a.756.756 0 0 1 .537-.223H45.22c.84 0 1.522-.683 1.522-1.522V19.347c0-.84-.682-1.522-1.522-1.522h-3.804a.76.76 0 1 1 0-1.522h3.804a3.047 3.047 0 0 1 3.044 3.044V40.65a3.047 3.047 0 0 1-3.044 3.043H22.71l-4.343 4.342a.763.763 0 0 1-.538.223zm-3.043-4.565a3.047 3.047 0 0 1-3.044-3.043V19.347a3.047 3.047 0 0 1 3.044-3.044h3.804a.761.761 0 0 1 0 1.522h-3.804c-.84 0-1.522.683-1.522 1.522V40.65c0 .84.683 1.522 1.522 1.522a.76.76 0 1 1 0 1.521z"/><path d="M40.658 30.76h-.761a.76.76 0 1 1 0-1.523h.76c.84 0 1.523-.682 1.523-1.521v-1.522c0-.839-.683-1.521-1.522-1.521h-.761a.76.76 0 0 1-.761-.761V22.39c0-5.034-4.096-9.13-9.13-9.13-5.035 0-9.13 4.096-9.13 9.13v1.522a.761.761 0 0 1-1.523 0V22.39c0-5.873 4.779-10.652 10.653-10.652 5.874 0 10.652 4.779 10.652 10.652v.76a3.047 3.047 0 0 1 3.043 3.044v1.522a3.047 3.047 0 0 1-3.043 3.043z"/><path d="M20.109 30.76h-.76a3.047 3.047 0 0 1-3.044-3.044v-1.522a3.047 3.047 0 0 1 3.043-3.043h.76c.421 0 .762.34.762.76v6.087c0 .42-.34.761-.761.761zm-.76-6.088c-.84 0-1.523.683-1.523 1.522v1.522c0 .84.683 1.521 1.522 1.521v-4.564zM30 40.65a2.285 2.285 0 0 1-2.282-2.283A2.285 2.285 0 0 1 30 36.085c.993 0 1.839.636 2.153 1.522h.13a6.855 6.855 0 0 0 6.848-6.848v-3.804a.76.76 0 1 1 1.521 0v3.804c0 4.615-3.755 8.37-8.369 8.37h-.761a.762.762 0 0 1-.76-.762.762.762 0 1 0-.762.761.76.76 0 1 1 0 1.522zm6.848-17.5a.76.76 0 0 1-.76-.76A6.094 6.094 0 0 0 30 16.303a6.094 6.094 0 0 0-6.087 6.087.761.761 0 0 1-1.521 0c0-4.195 3.413-7.608 7.608-7.608 4.196 0 7.61 3.413 7.61 7.608 0 .42-.341.76-.762.76zm-10.652 8.37h1.522v1.522h-1.522V31.52zm3.043 0h1.522v1.522H29.24V31.52z"/><path d="M32.29 31.52h1.522v1.522h-1.523V31.52z"/></g><defs><clipPath id="clip0_437_1040"><path fill="#fff" transform="translate(11.738 11.738)" d="M0 0h36.522v36.52H0z"/></clipPath></defs></svg>
